images/5430.svg

<?xml version="1.0" encoding="UTF-8"?>
<svg xmlns="http://www.w3.org/2000/svg" xmlns:xlink="http://www.w3.org/1999/xlink" width="300pt" height="300pt" viewBox="0 0 300 300" version="1.1">
<defs>
<g>
<symbol overflow="visible" id="glyph0-0">
<path style="stroke:none;" d="M 0.796875 2.828125 L 0.796875 -11.28125 L 8.796875 -11.28125 L 8.796875 2.828125 Z M 1.703125 1.9375 L 7.90625 1.9375 L 7.90625 -10.390625 L 1.703125 -10.390625 Z M 1.703125 1.9375 "/>
</symbol>
<symbol overflow="visible" id="glyph0-1">
<path style="stroke:none;" d="M 1.578125 -11.671875 L 3.703125 -11.671875 L 8.875 -1.90625 L 8.875 -11.671875 L 10.40625 -11.671875 L 10.40625 0 L 8.28125 0 L 3.109375 -9.765625 L 3.109375 0 L 1.578125 0 Z M 1.578125 -11.671875 "/>
</symbol>
<symbol overflow="visible" id="glyph0-2">
<path style="stroke:none;" d="M 1.578125 -11.671875 L 3.15625 -11.671875 L 3.15625 -6.890625 L 8.890625 -6.890625 L 8.890625 -11.671875 L 10.46875 -11.671875 L 10.46875 0 L 8.890625 0 L 8.890625 -5.5625 L 3.15625 -5.5625 L 3.15625 0 L 1.578125 0 Z M 1.578125 -11.671875 "/>
</symbol>
<symbol overflow="visible" id="glyph0-3">
<path style="stroke:none;" d="M 8.5625 -11.28125 L 8.5625 -9.75 C 7.96875 -10.03125 7.40625 -10.238281 6.875 -10.375 C 6.34375 -10.519531 5.828125 -10.59375 5.328125 -10.59375 C 4.472656 -10.59375 3.8125 -10.425781 3.34375 -10.09375 C 2.875 -9.757812 2.640625 -9.285156 2.640625 -8.671875 C 2.640625 -8.160156 2.796875 -7.769531 3.109375 -7.5 C 3.421875 -7.238281 4.007812 -7.03125 4.875 -6.875 L 5.828125 -6.671875 C 7.003906 -6.453125 7.867188 -6.054688 8.421875 -5.484375 C 8.984375 -4.921875 9.265625 -4.164062 9.265625 -3.21875 C 9.265625 -2.09375 8.882812 -1.234375 8.125 -0.640625 C 7.375 -0.0546875 6.265625 0.234375 4.796875 0.234375 C 4.242188 0.234375 3.65625 0.164062 3.03125 0.03125 C 2.414062 -0.09375 1.773438 -0.273438 1.109375 -0.515625 L 1.109375 -2.140625 C 1.742188 -1.785156 2.367188 -1.515625 2.984375 -1.328125 C 3.597656 -1.148438 4.203125 -1.0625 4.796875 -1.0625 C 5.703125 -1.0625 6.398438 -1.238281 6.890625 -1.59375 C 7.378906 -1.945312 7.625 -2.453125 7.625 -3.109375 C 7.625 -3.679688 7.445312 -4.128906 7.09375 -4.453125 C 6.738281 -4.773438 6.160156 -5.015625 5.359375 -5.171875 L 4.40625 -5.359375 C 3.226562 -5.597656 2.375 -5.96875 1.84375 -6.46875 C 1.320312 -6.96875 1.0625 -7.660156 1.0625 -8.546875 C 1.0625 -9.578125 1.421875 -10.390625 2.140625 -10.984375 C 2.867188 -11.578125 3.875 -11.875 5.15625 -11.875 C 5.695312 -11.875 6.25 -11.820312 6.8125 -11.71875 C 7.382812 -11.625 7.96875 -11.476562 8.5625 -11.28125 Z M 8.5625 -11.28125 "/>
</symbol>
</g>
</defs>
<g id="surface32541">
<rect x="0" y="0" width="300" height="300" style="fill:rgb(100%,100%,100%);fill-opacity:1;stroke:none;"/>
<path style="fill:none;stroke-width:1.2;stroke-linecap:butt;stroke-linejoin:miter;stroke:rgb(0%,0%,0%);stroke-opacity:1;stroke-miterlimit:10;" d="M 38.890625 169.125 L 38.890625 130.875 "/>
<path style="fill:none;stroke-width:1.2;stroke-linecap:butt;stroke-linejoin:miter;stroke:rgb(0%,0%,0%);stroke-opacity:1;stroke-miterlimit:10;" d="M 47.890625 165.300781 L 47.890625 134.699219 "/>
<path style="fill:none;stroke-width:1.2;stroke-linecap:butt;stroke-linejoin:miter;stroke:rgb(0%,0%,0%);stroke-opacity:1;stroke-miterlimit:10;" d="M 72.015625 188.25 L 38.890625 169.125 "/>
<path style="fill:none;stroke-width:1.2;stroke-linecap:butt;stroke-linejoin:miter;stroke:rgb(0%,0%,0%);stroke-opacity:1;stroke-miterlimit:10;" d="M 38.890625 130.875 L 72.015625 111.75 "/>
<path style="fill:none;stroke-width:1.2;stroke-linecap:butt;stroke-linejoin:miter;stroke:rgb(0%,0%,0%);stroke-opacity:1;stroke-miterlimit:10;" d="M 72.015625 111.75 L 105.140625 130.875 "/>
<path style="fill:none;stroke-width:1.2;stroke-linecap:butt;stroke-linejoin:miter;stroke:rgb(0%,0%,0%);stroke-opacity:1;stroke-miterlimit:10;" d="M 70.828125 121.457031 L 97.328125 136.757812 "/>
<path style="fill:none;stroke-width:1.2;stroke-linecap:butt;stroke-linejoin:miter;stroke:rgb(0%,0%,0%);stroke-opacity:1;stroke-miterlimit:10;" d="M 105.140625 130.875 L 105.140625 169.125 "/>
<path style="fill:none;stroke-width:1.2;stroke-linecap:butt;stroke-linejoin:miter;stroke:rgb(0%,0%,100%);stroke-opacity:1;stroke-miterlimit:10;" d="M 141.519531 119.054688 L 123.328125 124.964844 "/>
<path style="fill:none;stroke-width:1.2;stroke-linecap:butt;stroke-linejoin:miter;stroke:rgb(0%,0%,0%);stroke-opacity:1;stroke-miterlimit:10;" d="M 123.328125 124.964844 L 105.140625 130.875 "/>
<path style="fill:none;stroke-width:1.2;stroke-linecap:butt;stroke-linejoin:miter;stroke:rgb(0%,0%,0%);stroke-opacity:1;stroke-miterlimit:10;" d="M 105.140625 169.125 L 72.015625 188.25 "/>
<path style="fill:none;stroke-width:1.2;stroke-linecap:butt;stroke-linejoin:miter;stroke:rgb(0%,0%,0%);stroke-opacity:1;stroke-miterlimit:10;" d="M 97.328125 163.242188 L 70.828125 178.542969 "/>
<path style="fill:none;stroke-width:1.2;stroke-linecap:butt;stroke-linejoin:miter;stroke:rgb(0%,0%,0%);stroke-opacity:1;stroke-miterlimit:10;" d="M 105.140625 169.125 L 123.328125 175.035156 "/>
<path style="fill:none;stroke-width:1.2;stroke-linecap:butt;stroke-linejoin:miter;stroke:rgb(0%,0%,100%);stroke-opacity:1;stroke-miterlimit:10;" d="M 123.328125 175.035156 L 141.519531 180.945312 "/>
<path style="fill:none;stroke-width:1.2;stroke-linecap:butt;stroke-linejoin:miter;stroke:rgb(0%,0%,100%);stroke-opacity:1;stroke-miterlimit:10;" d="M 141.519531 180.945312 L 152.757812 165.472656 "/>
<path style="fill:none;stroke-width:1.2;stroke-linecap:butt;stroke-linejoin:miter;stroke:rgb(0%,0%,0%);stroke-opacity:1;stroke-miterlimit:10;" d="M 152.757812 165.472656 L 164 150 "/>
<path style=" stroke:none;fill-rule:nonzero;fill:rgb(100%,100%,100%);fill-opacity:1;" d="M 129.519531 171.445312 L 153.519531 171.445312 L 153.519531 190.445312 L 129.519531 190.445312 Z M 129.519531 171.445312 "/>
<g style="fill:rgb(0%,0%,100%);fill-opacity:1;">
  <use xlink:href="#glyph0-1" x="129.519531" y="186.296875"/>
  <use xlink:href="#glyph0-2" x="141.488281" y="186.296875"/>
</g>
<path style="fill:none;stroke-width:1.2;stroke-linecap:butt;stroke-linejoin:miter;stroke:rgb(0%,0%,0%);stroke-opacity:1;stroke-miterlimit:10;" d="M 164 150 L 152.757812 134.527344 "/>
<path style="fill:none;stroke-width:1.2;stroke-linecap:butt;stroke-linejoin:miter;stroke:rgb(0%,0%,100%);stroke-opacity:1;stroke-miterlimit:10;" d="M 152.757812 134.527344 L 141.519531 119.054688 "/>
<path style="fill:none;stroke-width:1.2;stroke-linecap:butt;stroke-linejoin:miter;stroke:rgb(0%,0%,0%);stroke-opacity:1;stroke-miterlimit:10;" d="M 154.472656 152.195312 L 145.476562 139.816406 "/>
<path style="fill:none;stroke-width:1.2;stroke-linecap:butt;stroke-linejoin:miter;stroke:rgb(0%,0%,100%);stroke-opacity:1;stroke-miterlimit:10;" d="M 145.476562 139.816406 L 136.484375 127.441406 "/>
<path style="fill:none;stroke-width:1.2;stroke-linecap:butt;stroke-linejoin:miter;stroke:rgb(0%,0%,0%);stroke-opacity:1;stroke-miterlimit:10;" d="M 164 150 L 202.25 150 "/>
<path style=" stroke:none;fill-rule:nonzero;fill:rgb(100%,100%,100%);fill-opacity:1;" d="M 135.519531 109.554688 L 147.519531 109.554688 L 147.519531 128.554688 L 135.519531 128.554688 Z M 135.519531 109.554688 "/>
<g style="fill:rgb(0%,0%,100%);fill-opacity:1;">
  <use xlink:href="#glyph0-1" x="135.519531" y="124.40625"/>
</g>
<path style="fill:none;stroke-width:1.2;stroke-linecap:butt;stroke-linejoin:miter;stroke:rgb(0%,0%,0%);stroke-opacity:1;stroke-miterlimit:10;" d="M 202.25 150 L 224.734375 119.054688 "/>
<path style="fill:none;stroke-width:1.2;stroke-linecap:butt;stroke-linejoin:miter;stroke:rgb(0%,0%,0%);stroke-opacity:1;stroke-miterlimit:10;" d="M 211.78125 152.195312 L 229.765625 127.441406 "/>
<path style="fill:none;stroke-width:1.2;stroke-linecap:butt;stroke-linejoin:miter;stroke:rgb(0%,0%,100%);stroke-opacity:1;stroke-miterlimit:10;" d="M 224.734375 180.945312 L 213.492188 165.472656 "/>
<path style="fill:none;stroke-width:1.2;stroke-linecap:butt;stroke-linejoin:miter;stroke:rgb(0%,0%,0%);stroke-opacity:1;stroke-miterlimit:10;" d="M 213.492188 165.472656 L 202.25 150 "/>
<path style="fill:none;stroke-width:1.2;stroke-linecap:butt;stroke-linejoin:miter;stroke:rgb(0%,0%,0%);stroke-opacity:1;stroke-miterlimit:10;" d="M 224.734375 119.054688 L 242.921875 124.964844 "/>
<path style="fill:none;stroke-width:1.2;stroke-linecap:butt;stroke-linejoin:miter;stroke:rgb(80%,80%,0%);stroke-opacity:1;stroke-miterlimit:10;" d="M 242.921875 124.964844 L 261.109375 130.875 "/>
<path style="fill:none;stroke-width:1.2;stroke-linecap:butt;stroke-linejoin:miter;stroke:rgb(80%,80%,0%);stroke-opacity:1;stroke-miterlimit:10;" d="M 261.109375 130.875 L 261.109375 150 "/>
<path style="fill:none;stroke-width:1.2;stroke-linecap:butt;stroke-linejoin:miter;stroke:rgb(0%,0%,0%);stroke-opacity:1;stroke-miterlimit:10;" d="M 261.109375 150 L 261.109375 169.125 "/>
<path style=" stroke:none;fill-rule:nonzero;fill:rgb(100%,100%,100%);fill-opacity:1;" d="M 256.109375 121.375 L 267.109375 121.375 L 267.109375 140.375 L 256.109375 140.375 Z M 256.109375 121.375 "/>
<g style="fill:rgb(80%,80%,0%);fill-opacity:1;">
  <use xlink:href="#glyph0-3" x="256.109375" y="136.226562"/>
</g>
<path style="fill:none;stroke-width:1.2;stroke-linecap:butt;stroke-linejoin:miter;stroke:rgb(0%,0%,0%);stroke-opacity:1;stroke-miterlimit:10;" d="M 261.109375 169.125 L 242.921875 175.035156 "/>
<path style="fill:none;stroke-width:1.2;stroke-linecap:butt;stroke-linejoin:miter;stroke:rgb(0%,0%,100%);stroke-opacity:1;stroke-miterlimit:10;" d="M 242.921875 175.035156 L 224.734375 180.945312 "/>
<path style="fill:none;stroke-width:1.2;stroke-linecap:butt;stroke-linejoin:miter;stroke:rgb(0%,0%,0%);stroke-opacity:1;stroke-miterlimit:10;" d="M 254.691406 161.746094 L 240.140625 166.476562 "/>
<path style="fill:none;stroke-width:1.2;stroke-linecap:butt;stroke-linejoin:miter;stroke:rgb(0%,0%,100%);stroke-opacity:1;stroke-miterlimit:10;" d="M 240.140625 166.476562 L 225.589844 171.203125 "/>
<path style=" stroke:none;fill-rule:nonzero;fill:rgb(100%,100%,100%);fill-opacity:1;" d="M 218.734375 171.445312 L 230.734375 171.445312 L 230.734375 190.445312 L 218.734375 190.445312 Z M 218.734375 171.445312 "/>
<g style="fill:rgb(0%,0%,100%);fill-opacity:1;">
  <use xlink:href="#glyph0-1" x="218.734375" y="186.296875"/>
</g>
</g>
</svg>

<svg xmlns="http://www.w3.org/2000/svg" xmlns:xlink="http://www.w3.org/1999/xlink" width="300pt" height="300pt" viewBox="0 0 300 300"><defs><symbol overflow="visible"><path d="M.797 2.828v-14.11h8V2.83zm.906-.89h6.203v-12.33H1.703zm0 0"/></symbol><symbol overflow="visible" id="a"><path d="M1.578-11.672h2.125l5.172 9.766v-9.766h1.53V0H8.282L3.11-9.766V0H1.577zm0 0"/></symbol><symbol overflow="visible" id="b"><path d="M1.578-11.672h1.578v4.78H8.89v-4.78h1.58V0H8.89v-5.563H3.157V0H1.578zm0 0"/></symbol><symbol overflow="visible" id="c"><path d="M8.563-11.28v1.53c-.594-.28-1.157-.488-1.688-.625-.53-.145-1.047-.22-1.547-.22-.855 0-1.516.17-1.984.5-.47.337-.703.81-.703 1.423 0 .512.157.902.47 1.172.312.262.898.47 1.765.625l.953.203c1.176.22 2.04.617 2.594 1.188.562.562.844 1.32.844 2.265 0 1.126-.383 1.986-1.14 2.58-.75.585-1.86.874-3.33.874-.554 0-1.14-.07-1.765-.203-.616-.124-1.257-.303-1.92-.546V-2.14c.632.355 1.257.624 1.874.812.614.18 1.22.266 1.813.266.906 0 1.6-.176 2.094-.532.49-.35.735-.86.735-1.515 0-.57-.18-1.02-.53-1.343-.357-.32-.935-.563-1.736-.72l-.954-.186c-1.18-.238-2.03-.61-2.562-1.11-.524-.5-.782-1.19-.782-2.077 0-1.03.36-1.844 1.08-2.437.725-.594 1.733-.89 3.014-.89.54 0 1.094.054 1.657.155.57.095 1.156.243 1.75.44zm0 0"/></symbol></defs><g><path fill="#fff" d="M0 0h300v300H0z"/><path d="M38.89 169.125v-38.25M47.89 165.3v-30.6M72.016 188.25L38.89 169.125M38.89 130.875l33.126-19.125M72.016 111.75l33.125 19.125M70.828 121.457l26.5 15.3M105.14 130.875v38.25" stroke-width="1.2" stroke="#000" stroke-miterlimit="10" fill="none"/><path d="M141.52 119.055l-18.192 5.91" stroke-width="1.2" stroke="#00f" stroke-miterlimit="10" fill="none"/><path d="M123.328 124.965l-18.187 5.91M105.14 169.125L72.017 188.25M97.328 163.242l-26.5 15.3M105.14 169.125l18.188 5.91" stroke-width="1.2" stroke="#000" stroke-miterlimit="10" fill="none"/><path d="M123.328 175.035l18.192 5.91M141.52 180.945l11.238-15.472" stroke-width="1.2" stroke="#00f" stroke-miterlimit="10" fill="none"/><path d="M152.758 165.473L164 150" stroke-width="1.2" stroke="#000" stroke-miterlimit="10" fill="none"/><path d="M129.52 171.445h24v19h-24zm0 0" fill="#fff"/><g fill="#00f"><use xlink:href="#a" x="129.52" y="186.297"/><use xlink:href="#b" x="141.488" y="186.297"/></g><path d="M164 150l-11.242-15.473" stroke-width="1.2" stroke="#000" stroke-miterlimit="10" fill="none"/><path d="M152.758 134.527l-11.238-15.472" stroke-width="1.2" stroke="#00f" stroke-miterlimit="10" fill="none"/><path d="M154.473 152.195l-8.996-12.38" stroke-width="1.2" stroke="#000" stroke-miterlimit="10" fill="none"/><path d="M145.477 139.816l-8.993-12.375" stroke-width="1.2" stroke="#00f" stroke-miterlimit="10" fill="none"/><path d="M164 150h38.25" stroke-width="1.2" stroke="#000" stroke-miterlimit="10" fill="none"/><path d="M135.52 109.555h12v19h-12zm0 0" fill="#fff"/><use xlink:href="#a" x="135.52" y="124.406" fill="#00f"/><path d="M202.25 150l22.484-30.945M211.78 152.195l17.986-24.754" stroke-width="1.2" stroke="#000" stroke-miterlimit="10" fill="none"/><path d="M224.734 180.945l-11.242-15.472" stroke-width="1.2" stroke="#00f" stroke-miterlimit="10" fill="none"/><path d="M213.492 165.473L202.25 150M224.734 119.055l18.188 5.91" stroke-width="1.2" stroke="#000" stroke-miterlimit="10" fill="none"/><path d="M242.922 124.965l18.187 5.91M261.11 130.875V150" stroke-width="1.2" stroke="#cc0" stroke-miterlimit="10" fill="none"/><path d="M261.11 150v19.125" stroke-width="1.2" stroke="#000" stroke-miterlimit="10" fill="none"/><path d="M256.11 121.375h11v19h-11zm0 0" fill="#fff"/><use xlink:href="#c" x="256.109" y="136.227" fill="#cc0"/><path d="M261.11 169.125l-18.188 5.91" stroke-width="1.2" stroke="#000" stroke-miterlimit="10" fill="none"/><path d="M242.922 175.035l-18.188 5.91" stroke-width="1.2" stroke="#00f" stroke-miterlimit="10" fill="none"/><path d="M254.69 161.746l-14.55 4.73" stroke-width="1.2" stroke="#000" stroke-miterlimit="10" fill="none"/><path d="M240.14 166.477l-14.55 4.726" stroke-width="1.2" stroke="#00f" stroke-miterlimit="10" fill="none"/><path d="M218.734 171.445h12v19h-12zm0 0" fill="#fff"/><use xlink:href="#a" x="218.734" y="186.297" fill="#00f"/></g></svg>
